tools/download-figma-icons/icons/outlined-large/food.svg

<svg width="64" height="64" viewBox="0 0 64 64" fill="none" xmlns="http://www.w3.org/2000/svg">
<path fill-rule="evenodd" clip-rule="evenodd" d="M42 31.3711V61.0001H56V31.1711C55.216 31.4231 54.665 31.9381 53.987 32.5831C53.481 33.0651 52.912 33.5941 52.204 34.0371C52.1973 34.0414 52.1908 34.046 52.1842 34.0506C52.1711 34.0597 52.158 34.0688 52.144 34.0761C51.282 34.6031 50.212 34.9941 48.759 34.9941C46.062 34.9941 44.659 33.6581 43.531 32.5831C43.001 32.0781 42.547 31.6541 42 31.3711ZM9.199 31.8751C8.828 31.5701 8.45 31.3311 8 31.1801V61.0001H39V31.2501C38.333 31.5231 37.829 32.0011 37.219 32.5831C36.092 33.6581 34.689 34.9941 31.994 34.9941C29.298 34.9941 27.896 33.6581 26.768 32.5831L26.7654 32.5807C25.8028 31.6639 25.1057 31.0001 23.612 31.0001C22.1203 31.0001 21.4242 31.663 20.4625 32.5788L20.458 32.5831C19.331 33.6581 17.928 34.9941 15.232 34.9941C12.532 34.9941 11.114 33.6531 9.975 32.5751C9.957 32.5591 9.94 32.5431 9.923 32.5271C9.613 32.3981 9.362 32.1651 9.199 31.8751ZM13.275 22.0891C12.501 22.9011 12 24.2401 12 25.5001V30.3611C12.012 30.3721 12.025 30.3841 12.037 30.3961L12.0376 30.3967C13.0183 31.3244 13.7273 31.9951 15.232 31.9951C16.7275 31.9951 17.4235 31.3316 18.387 30.4131L18.388 30.4121C19.515 29.3371 20.917 28.0001 23.612 28.0001C24.554 28.0001 25.33 28.1701 26 28.4281V25.5001C26 24.1881 25.535 22.8861 24.786 22.1021C24.762 22.0771 24.738 22.0501 24.715 22.0231L21.345 17.9581C21.122 17.6891 21 17.3511 21 17.0011V9.00111H17V17.0011C17 17.3471 16.881 17.6821 16.662 17.9491L13.353 22.0021C13.328 22.0321 13.302 22.0621 13.275 22.0891ZM37.917 3.05511C36.682 2.87211 35.562 3.17611 34.489 3.98711C30.27 7.17911 28.189 17.1491 27.744 20.7221C27.7378 20.7732 27.7199 20.8188 27.702 20.8645C27.6912 20.8922 27.6803 20.92 27.672 20.9491C28.512 22.2211 29 23.8451 29 25.5001V30.5651C29.883 31.4021 30.585 31.9951 31.994 31.9951C32.403 31.9951 32.749 31.9411 33.06 31.8501C32.876 29.8961 32.727 25.5031 34.475 21.8091C34.4628 21.7984 34.4504 21.7885 34.438 21.7787C34.4168 21.7619 34.3959 21.7453 34.377 21.7251L30.41 17.5321C29.841 16.9301 29.867 15.9801 30.469 15.4111C31.07 14.8431 32.02 14.8671 32.59 15.4701L36.155 19.2391C36.821 18.4911 37.616 17.8241 38.574 17.2861C39.46 16.7871 40.416 16.5221 41.362 16.4631C41.3653 16.4472 41.3683 16.4312 41.3714 16.4152C41.3803 16.3679 41.3893 16.3204 41.405 16.2741C41.429 16.2051 43.718 9.27611 41.463 5.41411C40.725 4.14811 39.563 3.37811 37.917 3.05511ZM50.358 31.6381C50.959 30.5531 52.843 26.7271 51.55 23.4011C51.334 22.8481 50.683 21.5621 49.271 21.5621C48.421 21.5621 47.699 22.0791 46.696 23.4051C46.6851 23.42 46.6727 23.4325 46.6602 23.4451C46.6509 23.4545 46.6416 23.4638 46.633 23.4741C46.598 23.5151 46.562 23.5561 46.522 23.5931C46.4918 23.6216 46.4593 23.6472 46.4265 23.6729C46.4213 23.677 46.4162 23.681 46.411 23.6851C46.373 23.7141 46.335 23.7431 46.294 23.7691C46.251 23.7951 46.207 23.8181 46.163 23.8401C46.121 23.8611 46.079 23.8811 46.035 23.8981C45.987 23.9161 45.938 23.9301 45.889 23.9431C45.845 23.9551 45.802 23.9671 45.756 23.9751C45.7 23.9841 45.645 23.9881 45.589 23.9921C45.5769 23.9929 45.565 23.9944 45.5531 23.9958C45.5355 23.998 45.5179 24.0001 45.5 24.0001C45.4934 24.0001 45.4873 23.9993 45.4813 23.9986C45.4755 23.9978 45.4699 23.9971 45.464 23.9971C45.406 23.9961 45.349 23.9881 45.292 23.9791C45.2853 23.9783 45.2785 23.9775 45.2718 23.9768C45.2366 23.9727 45.2016 23.9687 45.168 23.9611C45.1297 23.9527 45.0925 23.9401 45.0552 23.9275C45.0438 23.9237 45.0324 23.9198 45.021 23.9161C45.0093 23.912 44.9976 23.9079 44.9858 23.9039C44.9523 23.8924 44.9186 23.8809 44.886 23.8661C44.856 23.853 44.8272 23.8364 44.7978 23.8195C44.7889 23.8143 44.78 23.8092 44.771 23.8041C44.7654 23.8009 44.7597 23.7977 44.7541 23.7945C44.7108 23.7698 44.6677 23.7453 44.627 23.7161C44.6222 23.7123 44.6169 23.7096 44.6118 23.7069C44.6062 23.7041 44.6007 23.7013 44.596 23.6971C44.581 23.6863 44.5685 23.6737 44.556 23.661C44.5476 23.6526 44.5392 23.6441 44.53 23.6361C44.487 23.6001 44.445 23.5631 44.407 23.5221C44.3825 23.496 44.3608 23.4688 44.339 23.4412C44.3324 23.4329 44.3258 23.4245 44.319 23.4161L44.3117 23.4064C44.2833 23.3689 44.2559 23.3327 44.231 23.2931C44.2085 23.2561 44.1892 23.2183 44.1694 23.1797L44.163 23.1671C44.141 23.1241 44.12 23.0801 44.102 23.0331C44.085 22.9881 44.071 22.9411 44.059 22.8951C44.046 22.8481 44.034 22.8031 44.025 22.7551C44.017 22.7021 44.013 22.6491 44.01 22.5951C44.0091 22.5814 44.0072 22.5681 44.0052 22.5548C44.0026 22.5369 44 22.519 44 22.5001C44 21.0351 43.519 20.0791 43.262 19.8941C42.407 19.2781 41.146 19.2801 40.045 19.8991C36.506 21.8911 35.937 26.6381 35.959 29.6721C36.97 28.8081 38.28 28.0001 40.374 28.0001C43.07 28.0001 44.474 29.3371 45.602 30.4121C46.565 31.3311 47.263 31.9951 48.759 31.9951C49.418 31.9951 49.918 31.8601 50.358 31.6381ZM57.3601 28.0137C57.4062 28.0069 57.4522 28.0001 57.5 28.0001C58.328 28.0001 59 28.6721 59 29.5001V62.5001C59 63.3281 58.328 64.0001 57.5 64.0001H6.5C5.672 64.0001 5 63.3281 5 62.5001V29.5001C5 28.6721 5.672 28.0001 6.5 28.0001C6.54784 28.0001 6.59383 28.0069 6.63991 28.0137C6.65259 28.0155 6.66527 28.0174 6.678 28.0191C6.68982 28.0175 6.70167 28.0157 6.71357 28.014C6.76008 28.0071 6.80722 28.0001 6.855 28.0001C7.687 28.0001 8.384 28.1411 9 28.3541V25.5001C9 23.5011 9.789 21.4241 11.063 20.0631L14 16.4661V9.00111H12.5C11.672 9.00111 11 8.33011 11 7.50111C11 6.67211 11.672 6.00111 12.5 6.00111H25.5C26.328 6.00111 27 6.67211 27 7.50111C27 8.33011 26.328 9.00111 25.5 9.00111H24V16.4601L25.169 17.8701C25.969 13.6091 28.092 5.06711 32.678 1.59611C34.413 0.282112 36.336 -0.224888 38.397 0.0911123C38.4029 0.0917018 38.4084 0.0933339 38.4141 0.0949842C38.418 0.0961334 38.4219 0.0972913 38.426 0.0981123C38.431 0.0991123 38.4355 0.0993623 38.44 0.0996123C38.4445 0.0998623 38.449 0.100112 38.454 0.101112C40.984 0.586112 42.87 1.86811 44.059 3.90811C46.783 8.58611 44.719 15.7441 44.312 17.0331C44.557 17.1561 44.792 17.2991 45.017 17.4611C45.0569 17.4903 45.0929 17.5245 45.129 17.5587C45.1536 17.582 45.1781 17.6053 45.204 17.6271C45.623 16.6831 46.191 15.9031 46.908 15.2981C48.591 13.8791 50.426 13.9921 50.627 14.0061C51.453 14.0771 52.064 14.8031 51.994 15.6281C51.926 16.4461 51.205 17.0541 50.396 16.9981C50.059 16.9811 48.784 17.0541 47.988 18.7481C48.389 18.6391 48.81 18.5621 49.271 18.5621C51.536 18.5621 53.434 19.9651 54.346 22.3141C55.166 24.4241 55.1 26.5821 54.717 28.4411C55.395 28.1751 56.185 28.0001 57.145 28.0001C57.1928 28.0001 57.2399 28.0071 57.2864 28.014C57.2983 28.0157 57.3102 28.0175 57.322 28.0191C57.3347 28.0174 57.3474 28.0155 57.3601 28.0137ZM38.5005 15.0006C38.1165 15.0006 37.7325 14.8546 37.4395 14.5616L33.4395 10.5616C32.8535 9.97661 32.8535 9.02561 33.4395 8.44061C34.0255 7.85461 34.9745 7.85461 35.5605 8.44061L39.5605 12.4406C40.1465 13.0256 40.1465 13.9766 39.5605 14.5616C39.2675 14.8546 38.8835 15.0006 38.5005 15.0006Z" fill="black"/>
</svg>

<svg xmlns="http://www.w3.org/2000/svg" width="64" height="64" fill="none" viewBox="0 0 64 64"><path fill="currentColor" fill-rule="evenodd" d="M42 31.371v29.63h14V31.17c-.784.252-1.335.767-2.013 1.412-.506.482-1.075 1.011-1.783 1.454l-.02.014q-.02.014-.04.025c-.862.527-1.932.918-3.385.918-2.697 0-4.1-1.336-5.228-2.41-.53-.506-.984-.93-1.531-1.213m-32.801.504c-.371-.305-.749-.544-1.199-.695V61h31V31.25c-.667.273-1.171.751-1.781 1.333-1.127 1.075-2.53 2.411-5.225 2.411-2.696 0-4.098-1.336-5.226-2.41l-.003-.003c-.962-.917-1.66-1.58-3.153-1.58-1.492 0-2.188.662-3.15 1.578l-.004.004c-1.127 1.075-2.53 2.411-5.226 2.411-2.7 0-4.118-1.34-5.257-2.419l-.052-.048a1.5 1.5 0 0 1-.724-.652m4.076-9.786C12.501 22.901 12 24.24 12 25.5v4.861l.037.035c.981.928 1.69 1.6 3.195 1.6 1.495 0 2.192-.664 3.155-1.583h.001C19.515 29.336 20.917 28 23.612 28c.942 0 1.718.17 2.388.428V25.5c0-1.312-.465-2.614-1.214-3.398l-.071-.079-3.37-4.065a1.5 1.5 0 0 1-.345-.957v-8h-4v8c0 .346-.119.681-.338.948l-3.309 4.053q-.038.046-.078.087M37.917 3.055c-1.235-.183-2.355.121-3.428.932-4.219 3.192-6.3 13.162-6.745 16.735a.6.6 0 0 1-.042.142q-.017.042-.03.085C28.512 22.221 29 23.845 29 25.5v5.065c.883.837 1.585 1.43 2.994 1.43.409 0 .755-.054 1.066-.145-.184-1.954-.333-6.347 1.415-10.04l-.037-.031-.061-.054-3.967-4.193a1.5 1.5 0 0 1 2.18-2.062l3.565 3.77a9.4 9.4 0 0 1 2.419-1.954 6.5 6.5 0 0 1 2.788-.823l.01-.048q.01-.072.033-.14c.024-.07 2.313-6.999.058-10.86-.738-1.267-1.9-2.037-3.546-2.36m12.441 28.583c.601-1.085 2.485-4.91 1.192-8.237-.216-.553-.867-1.839-2.279-1.839-.85 0-1.572.517-2.575 1.843l-.036.04-.027.03a1 1 0 0 1-.111.118q-.046.042-.096.08l-.015.012q-.056.045-.117.084a2 2 0 0 1-.259.13 2 2 0 0 1-.146.044q-.065.019-.133.032a2 2 0 0 1-.167.017q-.018 0-.036.004L45.5 24h-.019l-.017-.002a1 1 0 0 1-.192-.02q-.053-.005-.104-.016-.056-.013-.113-.034l-.034-.01-.035-.013q-.05-.017-.1-.038-.045-.02-.088-.046l-.027-.016-.017-.01q-.065-.035-.127-.078l-.015-.01-.016-.009a.3.3 0 0 1-.04-.036l-.026-.025a1.3 1.3 0 0 1-.191-.195l-.02-.025-.007-.01a2 2 0 0 1-.081-.113q-.033-.056-.062-.113l-.006-.013a1 1 0 0 1-.061-.134 1 1 0 0 1-.043-.138 2 2 0 0 1-.034-.14 2 2 0 0 1-.015-.16l-.005-.04q-.004-.027-.005-.055c0-1.465-.481-2.42-.738-2.606-.855-.616-2.116-.614-3.217.005-3.539 1.992-4.108 6.74-4.086 9.773C36.97 28.808 38.28 28 40.374 28c2.696 0 4.1 1.337 5.228 2.412.963.92 1.661 1.583 3.157 1.583.659 0 1.159-.135 1.599-.357m7.002-3.624q.069-.012.14-.014a1.5 1.5 0 0 1 1.5 1.5v33a1.5 1.5 0 0 1-1.5 1.5h-51A1.5 1.5 0 0 1 5 62.5v-33A1.5 1.5 0 0 1 6.5 28q.071.002.14.014l.038.005.036-.005q.069-.012.141-.014c.832 0 1.529.141 2.145.354V25.5c0-1.999.789-4.076 2.063-5.437L14 16.466V9.001h-1.5a1.5 1.5 0 1 1 0-3h13a1.5 1.5 0 1 1 0 3H24v7.46l1.169 1.41c.8-4.262 2.923-12.804 7.509-16.275C34.413.282 36.336-.224 38.397.091q.009 0 .017.004l.012.003.014.002.014.001c2.53.485 4.416 1.767 5.605 3.807 2.724 4.678.66 11.836.253 13.125q.367.185.705.428.059.046.112.098l.075.068c.419-.944.987-1.724 1.704-2.329 1.683-1.419 3.518-1.306 3.719-1.292a1.5 1.5 0 0 1-.231 2.992c-.337-.017-1.612.056-2.408 1.75a4.8 4.8 0 0 1 1.283-.186c2.265 0 4.163 1.403 5.075 3.752.82 2.11.754 4.268.371 6.127a6.5 6.5 0 0 1 2.428-.44q.072.001.141.013l.036.005zM38.5 15c-.383 0-.767-.146-1.06-.44l-4-4a1.5 1.5 0 1 1 2.12-2.12l4 4A1.5 1.5 0 0 1 38.5 15" clip-rule="evenodd"/></svg>
